;FLAVOR:Marlin
;TIME:5402
;Filament used: 3.12657m
;Layer height: 0.2
;MINX:62.954
;MINY:59.298
;MINZ:0.2
;MAXX:156.611
;MAXY:160.335
;MAXZ:8
;TARGET_MACHINE.NAME:Creality Ender-3 Pro
;Generated with Cura_SteamEngine 5.11.0
; Ender 3 Custom Start G-code
G92 E0 ; Reset Extruder
G28 ; Home all axes
G1 Z5.0 F3000 ; Move Z Axis up a bit during heating to not damage bed
M104 S195.0 ; Start heating up the nozzle most of the way
M190 S60.0 ; Start heating the bed, wait until target temperature reached
M109 S210.0 ; Finish heating the nozzle
G1 Z2.0 F3000 ; Move Z Axis up little to prevent scratching of Heat Bed
G1 X0.1 Y20 Z0.3 F5000.0 ; Move to start position
G1 X0.1 Y200.0 Z0.3 F1500.0 E15 ; Draw the first line
G1 X0.4 Y200.0 Z0.3 F5000.0 ; Move to side a little
G1 X0.4 Y20 Z0.3 F1500.0 E30 ; Draw the second line
G92 E0 ; Reset Extruder
G1 Z2.0 F3000 ; Move Z Axis up little to prevent scratching of Heat Bed
G1 X5 Y20 Z0.3 F5000.0 ; Move over to prevent blob squish
M82 ;absolute extrusion mode
G92 E0
G92 E0
G1 F2400 E-3
;LAYER_COUNT:40
;LAYER:0
M107
G0 F6000 X70.92 Y86.108 Z0.2
;TYPE:SKIRT
G1 F2400 E0
G1 F1200 X71.388 Y85.725 E0.02011
G1 X72.156 Y85.177 E0.05149
G1 X73.29 Y84.529 E0.09493
G1 X75.406 Y83.488 E0.17337
G1 X76.048 Y83.197 E0.19681
G1 X76.857 Y82.896 E0.22552
G1 X77.409 Y82.715 E0.24484
G1 X79.88 Y81.864 E0.33177
G1 X82.222 Y80.984 E0.41498
G1 X84.533 Y80.038 E0.49803
G1 X86.88 Y79 E0.58339
G1 X89.119 Y77.934 E0.66587
G1 X91.373 Y76.78 E0.75009
G1 X93.558 Y75.584 E0.83294
G1 X95.777 Y74.285 E0.91846
G1 X97.879 Y72.974 E1.00086
G1 X99.97 Y71.585 E1.08435
G1 X102.053 Y70.116 E1.16912
G1 X104.053 Y68.62 E1.2522
G1 X106.004 Y67.07 E1.33507
G1 X107.972 Y65.417 E1.42055
G1 X110.065 Y63.547 E1.5139
G1 X110.823 Y62.915 E1.54673
G1 X111.889 Y62.198 E1.58946
G1 X112.347 Y61.942 E1.60691
G1 X114.689 Y60.733 E1.69457
G1 X115.966 Y60.161 E1.74111
G1 X116.463 Y59.988 E1.75861
G1 X116.915 Y59.851 E1.77432
G1 X117.502 Y59.691 E1.79456
G1 X118.438 Y59.487 E1.82642
G1 X118.929 Y59.414 E1.84293
G1 X120.236 Y59.327 E1.8865
G1 X121.16 Y59.321 E1.91723
G1 X121.9 Y59.305 E1.94185
G1 X122.988 Y59.298 E1.97804
G1 X123.961 Y59.339 E2.01043
G1 X124.924 Y59.466 E2.04274
G1 X125.793 Y59.655 E2.07231
G1 X126.695 Y59.89 E2.10332
G1 X127.953 Y60.196 E2.14638
G1 X129.975 Y60.722 E2.21587
G1 X130.639 Y60.919 E2.2389
G1 X132.86 Y61.681 E2.317
G1 X133.571 Y61.946 E2.34224
G1 X134.254 Y62.261 E2.36726
G1 X137.293 Y63.826 E2.48095
G1 X138.098 Y64.226 E2.51085
G1 X138.579 Y64.482 E2.52897
G1 X140.572 Y65.604 E2.60504
G1 X141.042 Y65.885 E2.62325
G1 X144.341 Y67.941 E2.75254
G1 X145.148 Y68.481 E2.78484
G1 X145.81 Y69.008 E2.81298
G1 X147.195 Y70.243 E2.8747
G1 X148.269 Y71.23 E2.92321
G1 X149.234 Y72.143 E2.9674
G1 X150.391 Y73.213 E3.01981
G1 X150.754 Y73.579 E3.03696
G1 X151.122 Y73.972 E3.05487
G1 X151.499 Y74.403 E3.07391
G1 X153.346 Y76.579 E3.16884
G1 X153.634 Y76.935 E3.18407
G1 X154.227 Y77.772 E3.21819
G1 X154.682 Y78.552 E3.24822
G1 X155.29 Y79.919 E3.29799
G1 X155.492 Y80.516 E3.31895
G1 X155.635 Y81.001 E3.33577
G1 X156.228 Y83.153 E3.41001
G1 X156.438 Y84.152 E3.44396
G1 X156.553 Y85.12 E3.47638
G1 X156.582 Y86.078 E3.50826
G1 X156.562 Y86.598 E3.52557
G1 X156.369 Y89.428 E3.61992
G1 X156.245 Y90.379 E3.65181
G1 X155.917 Y91.948 E3.70513
G1 X155.41 Y94.482 E3.79108
G1 X154.984 Y96.986 E3.87556
G1 X154.638 Y99.437 E3.95789
G1 X154.355 Y101.956 E4.0422
G1 X154.141 Y104.48 E4.12645
G1 X154.004 Y106.961 E4.20909
G1 X153.935 Y109.497 E4.29347
G1 X153.937 Y112.009 E4.37702
G1 X154.012 Y114.55 E4.46157
G1 X154.155 Y117.012 E4.54359
G1 X154.372 Y119.565 E4.62881
G1 X154.657 Y122.041 E4.71171
G1 X155.014 Y124.536 E4.79554
G1 X155.438 Y127.001 E4.87873
G1 X155.942 Y129.501 E4.96355
G1 X156.176 Y130.518 E4.99826
G1 X156.367 Y131.407 E5.0285
G1 X156.529 Y132.38 E5.06131
G1 X156.611 Y133.739 E5.10659
G1 X156.571 Y134.641 E5.13662
G1 X156.432 Y135.67 E5.17116
G1 X156.123 Y137.143 E5.22122
G1 X155.879 Y138.188 E5.25691
G1 X155.743 Y138.695 E5.27437
G1 X155.533 Y139.386 E5.29839
G1 X155.161 Y140.349 E5.33273
G1 X154.731 Y141.223 E5.36512
G1 X154.235 Y142.039 E5.39688
G1 X153.399 Y143.138 E5.44281
G1 X152.25 Y144.437 E5.50049
G1 X151.635 Y145.105 E5.53069
G1 X151.198 Y145.55 E5.55144
G1 X150.785 Y145.945 E5.57044
G1 X149.449 Y147.165 E5.63062
G1 X147.359 Y149.153 E5.72656
G1 X146.48 Y149.918 E5.76531
G1 X144.594 Y151.359 E5.84426
G1 X144.105 Y151.703 E5.86414
G1 X142.857 Y152.548 E5.91427
G1 X142.215 Y152.962 E5.93968
G1 X141.718 Y153.264 E5.95902
G1 X139.163 Y154.764 E6.05756
G1 X138.34 Y155.263 E6.08958
G1 X136.696 Y156.237 E6.15313
G1 X135.907 Y156.721 E6.18392
G1 X135.055 Y157.19 E6.21626
G1 X134.198 Y157.57 E6.24744
G1 X133.342 Y157.866 E6.27757
G1 X131.59 Y158.392 E6.33841
G1 X131.413 Y158.453 E6.34464
G1 X128.335 Y159.36 E6.45136
G1 X127.114 Y159.693 E6.49346
G1 X126.501 Y159.835 E6.51439
G1 X125.89 Y159.93 E6.53495
G1 X123.299 Y160.275 E6.62189
G1 X122.327 Y160.335 E6.65428
G1 X121.424 Y160.313 E6.68432
G1 X120.784 Y160.253 E6.7057
G1 X119.458 Y160.058 E6.75028
G1 X118.086 Y159.822 E6.79658
G1 X117.527 Y159.694 E6.81566
G1 X116.868 Y159.511 E6.83841
G1 X116.495 Y159.394 E6.85141
G1 X115.585 Y159.065 E6.88359
G1 X114.832 Y158.721 E6.91113
G1 X114.043 Y158.282 E6.94116
G1 X112.964 Y157.531 E6.98488
G1 X110.936 Y155.888 E7.07169
G1 X109.706 Y154.934 E7.12346
G1 X109.309 Y154.609 E7.14053
G1 X108.211 Y153.668 E7.18862
G1 X106.226 Y152.02 E7.27443
G1 X104.253 Y150.474 E7.3578
G1 X102.251 Y148.994 E7.44061
G1 X100.171 Y147.548 E7.52487
G1 X98.06 Y146.166 E7.60879
G1 X95.951 Y144.87 E7.69112
G1 X93.721 Y143.584 E7.77674
G1 X91.533 Y142.401 E7.85947
G1 X89.284 Y141.269 E7.94321
G1 X87.03 Y140.214 E8.02598
G1 X84.689 Y139.196 E8.11089
G1 X82.325 Y138.246 E8.19563
G1 X80.05 Y137.407 E8.27627
G1 X77.276 Y136.483 E8.37352
G1 X74.638 Y135.62 E8.46584
G1 X73.734 Y135.261 E8.49819
G1 X72.863 Y134.823 E8.53062
G1 X72.037 Y134.31 E8.56296
G1 X71.313 Y133.771 E8.59298
G1 X70.714 Y133.249 E8.6194
G1 X70.22 Y132.768 E8.64234
G1 X69.95 Y132.489 E8.65525
G1 X69.554 Y132.057 E8.67474
G1 X67.868 Y130.098 E8.7607
G1 X67.294 Y129.374 E8.79144
G1 X66.756 Y128.563 E8.8238
G1 X66.31 Y127.745 E8.85479
G1 X66.069 Y127.218 E8.87407
G1 X65.534 Y125.962 E8.91947
G1 X64.692 Y123.935 E8.99248
G1 X64.401 Y123.121 E9.02123
G1 X64.149 Y122.282 E9.05037
G1 X64.002 Y121.695 E9.07049
G1 X63.794 Y120.439 E9.11284
G1 X63.454 Y117.486 E9.2117
G1 X63.244 Y116.043 E9.2602
G1 X63.11 Y115.026 E9.29432
G1 X63.043 Y113.986 E9.32898
G1 X63.006 Y112.654 E9.3733
G1 X62.954 Y109.515 E9.47772
G1 X62.978 Y108.609 E9.50786
G1 X63.174 Y105.037 E9.62685
G1 X63.493 Y102.1 E9.72511
G1 X63.546 Y101.701 E9.73849
G1 X63.735 Y100.715 E9.77189
G1 X64.377 Y97.901 E9.86788
G1 X64.578 Y97.124 E9.89458
G1 X64.751 Y96.547 E9.91461
G1 X64.92 Y96.049 E9.93211
G1 X66.174 Y92.791 E10.04822
G1 X66.552 Y91.763 E10.08465
G1 X66.937 Y90.849 E10.11763
G1 X67.394 Y89.989 E10.15002
G1 X67.923 Y89.174 E10.18234
G1 X68.486 Y88.451 E10.21282
G1 X68.803 Y88.09 E10.2288
G1 X69.383 Y87.482 E10.25675
G1 X69.846 Y87.038 E10.27808
G1 X70.92 Y86.108 E10.32533
G0 F6000 X71.173 Y86.417
G1 F1200 X71.621 Y86.05 E10.3446
G1 X72.355 Y85.524 E10.37463
G1 X73.467 Y84.888 E10.41724
G1 X75.583 Y83.847 E10.49567
G1 X76.188 Y83.572 E10.51778
G1 X76.982 Y83.276 E10.54596
G1 X77.534 Y83.095 E10.56528
G1 X80.01 Y82.242 E10.65238
G1 X82.363 Y81.358 E10.73598
G1 X84.695 Y80.404 E10.81979
G1 X87.042 Y79.366 E10.90514
G1 X89.291 Y78.295 E10.98799
G1 X91.565 Y77.131 E11.07296
G1 X93.75 Y75.935 E11.15581
G1 X95.979 Y74.63 E11.24171
G1 X98.091 Y73.313 E11.3245
G1 X100.201 Y71.912 E11.40874
G1 X102.284 Y70.443 E11.49352
G1 X104.293 Y68.94 E11.57697
G1 X106.253 Y67.383 E11.66022
G1 X108.229 Y65.723 E11.74606
G1 X110.322 Y63.854 E11.83939
G1 X111.047 Y63.247 E11.87083
G1 X112.085 Y62.547 E11.91248
G1 X112.531 Y62.297 E11.92948
G1 X114.853 Y61.098 E12.0164
G1 X116.097 Y60.539 E12.06176
G1 X116.58 Y60.371 E12.07877
G1 X117.02 Y60.237 E12.09407
G1 X117.588 Y60.082 E12.11365
G1 X118.497 Y59.883 E12.1446
G1 X118.988 Y59.81 E12.16111
G1 X120.239 Y59.727 E12.20281
G1 X121.169 Y59.721 E12.23374
G1 X121.903 Y59.705 E12.25816
G1 X122.972 Y59.698 E12.29372
G1 X123.909 Y59.736 E12.32491
G1 X124.839 Y59.857 E12.3561
G1 X125.692 Y60.042 E12.38513
G1 X126.601 Y60.279 E12.41637
G1 X127.852 Y60.583 E12.45919
G1 X129.862 Y61.106 E12.52827
G1 X130.509 Y61.297 E12.55071
G1 X132.72 Y62.056 E12.62846
G1 X133.431 Y62.321 E12.6537
G1 X134.071 Y62.617 E12.67715
G1 X137.11 Y64.182 E12.79084
G1 X137.91 Y64.579 E12.82055
G1 X138.383 Y64.831 E12.83837
G1 X140.367 Y65.947 E12.91408
G1 X140.83 Y66.224 E12.93203
G1 X144.119 Y68.274 E13.06093
G1 X144.899 Y68.794 E13.09211
G1 X145.544 Y69.307 E13.11952
G1 X146.924 Y70.537 E13.18101
G1 X147.994 Y71.521 E13.22936
G1 X148.959 Y72.434 E13.27354
G1 X150.107 Y73.495 E13.32553
G1 X150.462 Y73.853 E13.3423
G1 X150.821 Y74.236 E13.35976
G1 X151.194 Y74.662 E13.37859
G1 X153.035 Y76.831 E13.47322
G1 X153.323 Y77.187 E13.48845
G1 X153.881 Y77.974 E13.52054
G1 X154.336 Y78.754 E13.55057
G1 X154.911 Y80.047 E13.59764
G1 X155.108 Y80.629 E13.61807
G1 X155.249 Y81.107 E13.63465
G1 X155.842 Y83.259 E13.70889
G1 X156.041 Y84.2 E13.74088
G1 X156.153 Y85.132 E13.7721
G1 X156.182 Y86.063 E13.80308
G1 X156.163 Y86.571 E13.81999
G1 X155.972 Y89.377 E13.91353
G1 X155.852 Y90.303 E13.94459
G1 X155.77 Y90.725 E13.95889
G1 X155.526 Y91.864 E13.99763
G1 X155.018 Y94.404 E14.08379
G1 X154.59 Y96.919 E14.16864
G1 X154.242 Y99.381 E14.25134
G1 X153.956 Y101.922 E14.33639
G1 X153.743 Y104.446 E14.42063
G1 X153.604 Y106.95 E14.50404
G1 X153.535 Y109.486 E14.58842
G1 X153.537 Y112.009 E14.67234
G1 X153.612 Y114.562 E14.75729
G1 X153.756 Y117.046 E14.84004
G1 X153.974 Y119.599 E14.92527
G1 X154.261 Y122.098 E15.00893
G1 X154.62 Y124.604 E15.09313
G1 X155.046 Y127.08 E15.17669
G1 X155.552 Y129.591 E15.26189
G1 X155.785 Y130.602 E15.2964
G1 X155.973 Y131.473 E15.32603
G1 X156.13 Y132.405 E15.35747
G1 X156.211 Y133.721 E15.40132
G1 X156.171 Y134.623 E15.43135
G1 X156.041 Y135.588 E15.46374
G1 X155.733 Y137.052 E15.5135
G1 X155.489 Y138.097 E15.54919
G1 X155.36 Y138.579 E15.56578
G1 X155.15 Y139.27 E15.5898
G1 X154.802 Y140.173 E15.62199
G1 X154.389 Y141.015 E15.65318
G1 X153.893 Y141.831 E15.68494
G1 X153.099 Y142.873 E15.72852
G1 X151.956 Y144.166 E15.78592
G1 X151.349 Y144.825 E15.81572
G1 X150.922 Y145.261 E15.83601
G1 X150.515 Y145.65 E15.85474
G1 X149.173 Y146.875 E15.91517
G1 X147.096 Y148.851 E16.01052
G1 X146.217 Y149.616 E16.04928
G1 X144.364 Y151.032 E16.12685
G1 X143.881 Y151.372 E16.14649
G1 X142.64 Y152.212 E16.19633
G1 X142.008 Y152.62 E16.22135
G1 X141.515 Y152.919 E16.24053
G1 X138.96 Y154.419 E16.33907
G1 X138.136 Y154.919 E16.37113
G1 X136.492 Y155.893 E16.43469
G1 X135.714 Y156.371 E16.46506
G1 X134.893 Y156.824 E16.49624
G1 X134.036 Y157.204 E16.52742
G1 X133.227 Y157.483 E16.55589
G1 X131.471 Y158.01 E16.61687
G1 X131.3 Y158.069 E16.62288
G1 X128.23 Y158.974 E16.72933
G1 X127.024 Y159.303 E16.77091
G1 X126.411 Y159.445 E16.79184
G1 X125.837 Y159.534 E16.81116
G1 X123.274 Y159.876 E16.89716
G1 X122.337 Y159.935 E16.92839
G1 X121.434 Y159.913 E16.95843
G1 X120.842 Y159.857 E16.97821
G1 X119.526 Y159.664 E17.02245
G1 X118.175 Y159.432 E17.06804
G1 X117.634 Y159.309 E17.08649
G1 X116.987 Y159.129 E17.10883
G1 X116.631 Y159.018 E17.12123
G1 X115.751 Y158.701 E17.15234
G1 X115.026 Y158.371 E17.17884
G1 X114.237 Y157.932 E17.20887
G1 X113.216 Y157.22 E17.25027
G1 X111.188 Y155.577 E17.33708
G1 X109.959 Y154.624 E17.3888
G1 X109.569 Y154.305 E17.40556
G1 X108.467 Y153.36 E17.45384
G1 X106.482 Y151.712 E17.53965
G1 X104.5 Y150.159 E17.6234
G1 X102.489 Y148.673 E17.70657
G1 X100.39 Y147.213 E17.79161
G1 X98.279 Y145.831 E17.87553
G1 X96.151 Y144.523 E17.95861
G1 X93.921 Y143.237 E18.04423
G1 X91.723 Y142.049 E18.12733
G1 X89.454 Y140.907 E18.21181
G1 X87.19 Y139.847 E18.29496
G1 X84.849 Y138.829 E18.37986
G1 X82.474 Y137.875 E18.46499
G1 X80.188 Y137.032 E18.54603
G1 X77.4 Y136.103 E18.64377
G1 X74.785 Y135.248 E18.73528
G1 X73.913 Y134.903 E18.76647
G1 X73.074 Y134.483 E18.79767
G1 X72.276 Y133.989 E18.82889
G1 X71.552 Y133.45 E18.85891
G1 X70.993 Y132.962 E18.88359
G1 X70.507 Y132.489 E18.90615
G1 X70.245 Y132.219 E18.91866
G1 X69.857 Y131.796 E18.93775
G1 X68.181 Y129.849 E19.0232
G1 X67.627 Y129.152 E19.05281
G1 X67.107 Y128.371 E19.08402
G1 X66.674 Y127.578 E19.11407
G1 X66.437 Y127.061 E19.13298
G1 X65.903 Y125.809 E19.17826
G1 X65.069 Y123.8 E19.2506
G1 X64.778 Y122.986 E19.27936
G1 X64.537 Y122.184 E19.30721
G1 X64.397 Y121.63 E19.32621
G1 X64.189 Y120.374 E19.36856
G1 X63.85 Y117.428 E19.46719
G1 X63.641 Y115.991 E19.51549
G1 X63.507 Y114.974 E19.5496
G1 X63.443 Y113.975 E19.5829
G1 X63.406 Y112.647 E19.62709
G1 X63.354 Y109.525 E19.73094
G1 X63.377 Y108.631 E19.76068
G1 X63.572 Y105.08 E19.87897
G1 X63.89 Y102.152 E19.97693
G1 X63.939 Y101.776 E19.98954
G1 X64.125 Y100.804 E20.02245
G1 X64.764 Y98.001 E20.11807
G1 X64.961 Y97.239 E20.14425
G1 X65.13 Y96.675 E20.16383
G1 X65.293 Y96.193 E20.18076
G1 X66.55 Y92.929 E20.29709
G1 X66.921 Y91.918 E20.33291
G1 X67.291 Y91.036 E20.36472
G1 X67.73 Y90.206 E20.39595
G1 X68.239 Y89.419 E20.42712
G1 X68.786 Y88.715 E20.45678
G1 X69.093 Y88.366 E20.47224
G1 X69.66 Y87.771 E20.49957
G1 X70.123 Y87.327 E20.52091
G1 X71.173 Y86.417 E20.56712
G0 F6000 X71.427 Y86.726
G1 F1200 X71.854 Y86.375 E20.58551
G1 X72.588 Y85.849 E20.61554
G1 X73.644 Y85.247 E20.65597
G1 X75.749 Y84.211 E20.734
G1 X76.328 Y83.947 E20.75517
G1 X77.107 Y83.656 E20.78283
G1 X77.659 Y83.475 E20.80215
G1 X80.14 Y82.62 E20.88943
G1 X82.504 Y81.732 E20.97342
G1 X84.857 Y80.77 E21.05797
G1 X87.204 Y79.732 E21.14332
G1 X89.463 Y78.656 E21.22655
G1 X91.757 Y77.482 E21.31226
G1 X93.942 Y76.286 E21.3951
G1 X96.181 Y74.975 E21.4814
G1 X98.303 Y73.652 E21.56457
G1 X100.432 Y72.239 E21.64956
G1 X102.515 Y70.77 E21.73434
G1 X104.533 Y69.26 E21.81816
G1 X106.502 Y67.696 E21.9018
G1 X108.486 Y66.029 E21.98799
G1 X110.579 Y64.16 E22.08132
G1 X111.271 Y63.579 E22.11137
G1 X112.309 Y62.879 E22.15301
G1 X112.715 Y62.652 E22.16848
G1 X115.017 Y61.463 E22.25466
G1 X116.229 Y60.917 E22.29887
G1 X116.697 Y60.754 E22.31535
G1 X117.126 Y60.623 E22.33027
G1 X117.674 Y60.473 E22.34917
G1 X118.556 Y60.279 E22.37921
G1 X119.047 Y60.206 E22.39572
G1 X120.242 Y60.127 E22.43555
G1 X121.178 Y60.121 E22.46668
G1 X121.906 Y60.105 E22.4909
G1 X122.956 Y60.098 E22.52582
G1 X123.858 Y60.133 E22.55585
G1 X124.754 Y60.248 E22.58589
G1 X125.591 Y60.429 E22.61437
G1 X126.507 Y60.668 E22.64586
G1 X127.751 Y60.97 E22.68844
G1 X129.749 Y61.49 E22.75711
G1 X130.379 Y61.675 E22.77894
G1 X132.58 Y62.431 E22.85635
G1 X133.291 Y62.696 E22.88158
G1 X133.888 Y62.973 E22.90347
G1 X136.927 Y64.538 E23.01717
G1 X137.722 Y64.932 E23.04668
G1 X138.187 Y65.18 E23.06421
G1 X140.162 Y66.291 E23.13958
G1 X140.618 Y66.563 E23.15723
G1 X143.898 Y68.607 E23.28578
G1 X144.65 Y69.107 E23.31581
G1 X145.278 Y69.606 E23.34249
G1 X146.653 Y70.831 E23.40374
G1 X147.719 Y71.812 E23.45192
G1 X148.684 Y72.725 E23.49611
G1 X149.823 Y73.776 E23.54766
G1 X150.17 Y74.127 E23.56407
G1 X150.52 Y74.5 E23.58108
G1 X150.889 Y74.921 E23.5997
G1 X152.724 Y77.083 E23.69402
G1 X153.012 Y77.439 E23.70925
G1 X153.535 Y78.176 E23.73931
G1 X153.99 Y78.956 E23.76934
G1 X154.532 Y80.175 E23.81372
G1 X154.724 Y80.742 E23.83363
G1 X154.863 Y81.213 E23.84996
G1 X155.456 Y83.365 E23.9242
G1 X155.644 Y84.248 E23.95423
G1 X155.753 Y85.145 E23.98428
G1 X155.782 Y86.048 E24.01433
G1 X155.764 Y86.544 E24.03084
G1 X155.575 Y89.326 E24.12358
G1 X155.459 Y90.227 E24.1538
G1 X155.379 Y90.641 E24.16782
G1 X155.135 Y91.78 E24.20657
G1 X154.626 Y94.326 E24.29292
G1 X154.196 Y96.852 E24.37815
G1 X153.846 Y99.325 E24.46122
G1 X153.557 Y101.889 E24.54704
G1 X153.345 Y104.413 E24.63128
G1 X153.204 Y106.939 E24.71543
G1 X153.135 Y109.475 E24.79981
G1 X153.137 Y112.009 E24.88409
G1 X153.212 Y114.574 E24.96944
G1 X153.357 Y117.08 E25.05292
G1 X153.576 Y119.633 E25.13815
G1 X153.865 Y122.155 E25.22258
G1 X154.226 Y124.672 E25.30715
